TCanvas/fit1_8.svg

<svg xmlns="http://www.w3.org/2000/svg" viewBox="0 0 1200 800" preserveAspectRatio="none" width="1200" height="800">
 <path d="M0,0H1200V800H0Z" style="fill: white;"></path>
 <g>
  <svg viewBox="0 0 1176 384" preserveAspectRatio="none" x="12" y="8" width="1176" height="384">
   <path d="M0,0H1176V384H0Z" style="fill: white;"></path>
   <g>
    <g transform="translate(118,38)">
     <path d="M0,0H941V307H0Z" style="fill: white; stroke: black; stroke-width: 1;"></path>
     <svg x="0" y="0" overflow="hidden" width="941" height="307" viewBox="0 0 941 307">
      <g>
       <path d="M0,15h9v30h10v-9h9v15h10v18h9v45h9v-22h10v45h9v-40h10v20h9v15h10v15h9v5h9v-1h10v41h9v-39h10v10h9v32h9v-10h10v21h9v-11h10v20h9v-19h9v36h10v-10h9v26h10v-24h9v14h9v3h10v-19h9v35h10v-6h9v-14h10v14h9v-3h9v16h10v-5h9v-2h10v7h9v-12h9v15h10v10h9v-4h10v3h9v9h9v-13h10v12h9v-5h10v1h9v-4h10v18h9v-3h9v-11h10v-2h9v8h10v-2h9v7h9v-5h10v7h9v1h10v1h9v2h9v-13h10v13h9v1h10v-8h9v12h9v-3h10v-7h9v9h10v-3h9v3h10v-1h9v-1h9v-1h10v1h9v2h10v1h9v-3h9v2h19v-4h10v5h9v3h9v-1h10v-5h9v3h10v3h9v-4h9v3h10v-2h9v2h19v1h10v-1h9v-2h9v4h19v1h10v-6h9" style="stroke-linejoin: miter; stroke: #00009a; stroke-width: 1; fill: none;"></path>
      </g>
      <g>
       <path d="M98,133l8,7l7,7l8,6l7,7l8,6l7,5l8,6l7,5l8,5l7,5l8,4l7,5l8,4l7,4l8,4l8,4l7,4l8,3l7,3l8,4l7,3l8,3l7,3l8,2l7,3l8,2l7,3l8,2l7,2l8,2l7,2l8,2l8,2l7,2l8,2l7,1l8,2l7,2l8,1l7,1l8,2l7,1l8,1l7,2l8,1l7,1l8,1l7,1l8,1l8,1l7,1l8,1h7l8,1l7,1l8,1h7l8,1l7,1h8l7,1h8l7,1h8l7,1h8l7,1h8l8,1h7l8,1h7h8l7,1h8h7l8,1h7h8l7,1h8h7h8l7,1h8h8h7h8l7,1h8h7h8h7h8l7,1h8h7h8h7" style="fill: none; stroke: #0000ff; stroke-width: 2;"></path>
      </g>
     </svg>
     <g>
      <g transform="translate(0,307)">
       <path d="M0,0h941M0,-12V0M19,-6V0M38,-6V0M56,-6V0M75,-6V0M94,-12V0M113,-6V0M132,-6V0M151,-6V0M169,-6V0M188,-12V0M207,-6V0M226,-6V0M245,-6V0M263,-6V0M282,-12V0M301,-6V0M320,-6V0M339,-6V0M358,-6V0M376,-12V0M395,-6V0M414,-6V0M433,-6V0M452,-6V0M471,-12V0M489,-6V0M508,-6V0M527,-6V0M546,-6V0M565,-12V0M583,-6V0M602,-6V0M621,-6V0M640,-6V0M659,-12V0M678,-6V0M696,-6V0M715,-6V0M734,-6V0M753,-12V0M772,-6V0M790,-6V0M809,-6V0M828,-6V0M847,-12V0M866,-6V0M885,-6V0M903,-6V0M922,-6V0M941,-12V0" style="stroke: black; stroke-width: 1;"></path>
       <g font-family="Arial" font-size="13" space="preserve" fill="black" text-anchor="middle">
        <text dy=".8em" transform="translate(0,1)">
         0
        </text>
        <text dy=".8em" transform="translate(94,1)">
         10
        </text>
        <text dy=".8em" transform="translate(188,1)">
         20
        </text>
        <text dy=".8em" transform="translate(282,1)">
         30
        </text>
        <text dy=".8em" transform="translate(376,1)">
         40
        </text>
        <text dy=".8em" transform="translate(471,1)">
         50
        </text>
        <text dy=".8em" transform="translate(565,1)">
         60
        </text>
        <text dy=".8em" transform="translate(659,1)">
         70
        </text>
        <text dy=".8em" transform="translate(753,1)">
         80
        </text>
        <text dy=".8em" transform="translate(847,1)">
         90
        </text>
        <text dy=".8em" transform="translate(941,1)">
         100
        </text>
       </g>
      </g>
      <g>
       <path d="M0,0v307M35,307H0M18,295H0M18,284H0M18,272H0M18,260H0M35,249H0M18,237H0M18,225H0M18,214H0M18,202H0M35,191H0M18,179H0M18,167H0M18,156H0M18,144H0M35,132H0M18,121H0M18,109H0M18,97H0M18,86H0M35,74H0M18,62H0M18,51H0M18,39H0M18,27H0M35,16H0M18,4H0" style="stroke: black; stroke-width: 1;"></path>
       <g font-family="Arial" font-size="13" space="preserve" fill="black" text-anchor="end">
        <text dy=".4em" transform="translate(-2,307)">
         0
        </text>
        <text dy=".4em" transform="translate(-2,249)">
         50
        </text>
        <text dy=".4em" transform="translate(-2,191)">
         100
        </text>
        <text dy=".4em" transform="translate(-2,132)">
         150
        </text>
        <text dy=".4em" transform="translate(-2,74)">
         200
        </text>
        <text dy=".4em" transform="translate(-2,16)">
         250
        </text>
       </g>
      </g>
     </g>
    </g>
    <g transform="translate(118,2)" font-family="Arial" font-size="19" space="preserve">
     <text fill="black" text-anchor="middle" dy=".8em" transform="translate(471)">
      histo B
     </text>
    </g>
    <g transform="translate(917,25)" font-family="Arial" font-size="12" space="preserve" fill="black">
     <path d="M0,0H235V61H0Z" style="fill: white; stroke: black; stroke-width: 1;"></path>
     <text text-anchor="middle" dy=".4em" transform="translate(118,8)">
      hB
     </text>
     <text text-anchor="start" dy=".4em" transform="translate(12,23)">
      Entries
     </text>
     <text text-anchor="end" dy=".4em" transform="translate(223,23)">
      5000
     </text>
     <text text-anchor="start" dy=".4em" transform="translate(12,38)">
      Mean
     </text>
     <text text-anchor="end" dy=".4em" transform="translate(223,38)">
      19.59
     </text>
     <text text-anchor="start" dy=".4em" transform="translate(12,53)">
      Std Dev
     </text>
     <text text-anchor="end" dy=".4em" transform="translate(223,53)">
      18.61
     </text>
     <path d="M0,15h235" style="stroke: black; stroke-width: 1;"></path>
    </g>
   </g>
  </svg>
  <svg viewBox="0 0 1176 384" preserveAspectRatio="none" x="12" y="408" width="1176" height="384">
   <path d="M0,0H1176V384H0Z" style="fill: white;"></path>
   <g>
    <g transform="translate(118,38)">
     <path d="M0,0H941V307H0Z" style="fill: white; stroke: black; stroke-width: 1;"></path>
     <svg x="0" y="0" overflow="hidden" width="941" height="307" viewBox="0 0 941 307">
      <g>
       <path d="M0,82h9v18h10v-15h9v7h10v15h9v40h9v-15h10v-35h9v40h10v33h9v-28h10v20h9v25h9v-25h10v30h19v-30h9v23h9v15h10v-48h9v-2h10v35h9v-33h9v-7h10v-3h9v-30h10v-25h9v5h9v-77h10v37h9v-12h10v77h9v-70h10v55h9v48h9v17h10v40h9v-17h10v52h9v5h9v15h19v3h10v10h9v-20h9v35h10v-3h9v-7h10v12h9v5h10v-17h9v5h19v10h9v-5h10v2h9v-5h9v15h10v-5h9v-10h10v10h9v-10h9v-7h10v15h9v-13h10v25h9v-5h19v-2h9v-8h10v10h9v-2h10v-3h9v-5h9v5h10v5h9v-5h10v8h18v2h19v-12h10v10h9v-5h9v5h10v2h19v-5h9v5h9v-2h10v-8h9v10h10v-2h19v2h9v-2h28v-3h19" style="stroke-linejoin: miter; stroke: #00009a; stroke-width: 1; fill: none;"></path>
      </g>
      <g>
       <path d="M96,151l4,3l4,3l3,3l4,3l4,3l4,2l3,3l4,3l4,2l4,3l4,2l3,2l4,2l4,2l4,2l3,1l4,1l4,1l4,1h3h4h4l4,-1l3,-2l4,-2l4,-2l4,-4l3,-3l4,-5l4,-5l4,-5l4,-7l3,-6l4,-7l4,-8l4,-8l3,-8l4,-8l4,-8l4,-8l3,-8l4,-7l4,-6l4,-6l3,-4l4,-4l4,-3l4,-1h4l3,1l4,3l4,3l4,5l3,6l4,7l4,8l4,9l3,9l4,10l4,10l4,11l3,10l4,11l4,10l4,10l4,10l3,9l4,9l4,8l4,7l3,7l4,7l4,5l4,5l3,5l4,4l4,4l4,3l3,3l4,2l4,3l4,2l4,1l3,2l4,1l4,1l4,1l3,1l4,1l4,1h4l3,1l4,1h4l4,1h3l4,1h4l4,1" style="fill: none; stroke: #ff0000; stroke-width: 2;"></path>
      </g>
     </svg>
     <g>
      <g transform="translate(0,307)">
       <path d="M0,0h941M0,-12V0M19,-6V0M38,-6V0M56,-6V0M75,-6V0M94,-12V0M113,-6V0M132,-6V0M151,-6V0M169,-6V0M188,-12V0M207,-6V0M226,-6V0M245,-6V0M263,-6V0M282,-12V0M301,-6V0M320,-6V0M339,-6V0M358,-6V0M376,-12V0M395,-6V0M414,-6V0M433,-6V0M452,-6V0M471,-12V0M489,-6V0M508,-6V0M527,-6V0M546,-6V0M565,-12V0M583,-6V0M602,-6V0M621,-6V0M640,-6V0M659,-12V0M678,-6V0M696,-6V0M715,-6V0M734,-6V0M753,-12V0M772,-6V0M790,-6V0M809,-6V0M828,-6V0M847,-12V0M866,-6V0M885,-6V0M903,-6V0M922,-6V0M941,-12V0" style="stroke: black; stroke-width: 1;"></path>
       <g font-family="Arial" font-size="13" space="preserve" fill="black" text-anchor="middle">
        <text dy=".8em" transform="translate(0,1)">
         0
        </text>
        <text dy=".8em" transform="translate(94,1)">
         10
        </text>
        <text dy=".8em" transform="translate(188,1)">
         20
        </text>
        <text dy=".8em" transform="translate(282,1)">
         30
        </text>
        <text dy=".8em" transform="translate(376,1)">
         40
        </text>
        <text dy=".8em" transform="translate(471,1)">
         50
        </text>
        <text dy=".8em" transform="translate(565,1)">
         60
        </text>
        <text dy=".8em" transform="translate(659,1)">
         70
        </text>
        <text dy=".8em" transform="translate(753,1)">
         80
        </text>
        <text dy=".8em" transform="translate(847,1)">
         90
        </text>
        <text dy=".8em" transform="translate(941,1)">
         100
        </text>
       </g>
      </g>
      <g>
       <path d="M0,0v307M35,307H0M18,295H0M18,282H0M18,270H0M35,257H0M18,245H0M18,232H0M18,220H0M35,207H0M18,195H0M18,182H0M18,170H0M35,157H0M18,145H0M18,132H0M18,120H0M35,107H0M18,95H0M18,82H0M18,70H0M35,57H0M18,45H0M18,32H0M18,20H0M35,7H0" style="stroke: black; stroke-width: 1;"></path>
       <g font-family="Arial" font-size="13" space="preserve" fill="black" text-anchor="end">
        <text dy=".4em" transform="translate(-2,307)">
         0
        </text>
        <text dy=".4em" transform="translate(-2,257)">
         20
        </text>
        <text dy=".4em" transform="translate(-2,207)">
         40
        </text>
        <text dy=".4em" transform="translate(-2,157)">
         60
        </text>
        <text dy=".4em" transform="translate(-2,107)">
         80
        </text>
        <text dy=".4em" transform="translate(-2,57)">
         100
        </text>
        <text dy=".4em" transform="translate(-2,7)">
         120
        </text>
       </g>
      </g>
     </g>
    </g>
    <g transform="translate(118,2)" font-family="Arial" font-size="19" space="preserve">
     <text fill="black" text-anchor="middle" dy=".8em" transform="translate(471)">
      histo S+B
     </text>
    </g>
    <g transform="translate(917,25)" font-family="Arial" font-size="12" space="preserve" fill="black">
     <path d="M0,0H235V61H0Z" style="fill: white; stroke: black; stroke-width: 1;"></path>
     <text text-anchor="middle" dy=".4em" transform="translate(118,8)">
      hSB
     </text>
     <text text-anchor="start" dy=".4em" transform="translate(12,23)">
      Entries
     </text>
     <text text-anchor="end" dy=".4em" transform="translate(223,23)">
      3000
     </text>
     <text text-anchor="start" dy=".4em" transform="translate(12,38)">
      Mean
     </text>
     <text text-anchor="end" dy=".4em" transform="translate(223,38)">
      23.10
     </text>
     <text text-anchor="start" dy=".4em" transform="translate(12,53)">
      Std Dev
     </text>
     <text text-anchor="end" dy=".4em" transform="translate(223,53)">
      16.22
     </text>
     <path d="M0,15h235" style="stroke: black; stroke-width: 1;"></path>
    </g>
   </g>
  </svg>
 </g>
</svg>

<svg xmlns="http://www.w3.org/2000/svg" viewBox="0 0 1200 800" preserveAspectRatio="none" width="1200" height="800">
 <path d="M0,0H1200V800H0Z" style="fill: white;"></path>
 <g>
  <svg viewBox="0 0 1176 384" preserveAspectRatio="none" x="12" y="8" width="1176" height="384">
   <path d="M0,0H1176V384H0Z" style="fill: white;"></path>
   <g>
    <g transform="translate(118,38)">
     <path d="M0,0H941V307H0Z" style="fill: white; stroke: black; stroke-width: 1;"></path>
     <svg x="0" y="0" overflow="hidden" width="941" height="307" viewBox="0 0 941 307">
      <g>
       <path d="M0,15h9v30h10v-9h9v15h10v18h9v45h9v-22h10v45h9v-40h10v20h9v15h10v15h9v5h9v-1h10v41h9v-39h10v10h9v32h9v-10h10v21h9v-11h10v20h9v-19h9v36h10v-10h9v26h10v-24h9v14h9v3h10v-19h9v35h10v-6h9v-14h10v14h9v-3h9v16h10v-5h9v-2h10v7h9v-12h9v15h10v10h9v-4h10v3h9v9h9v-13h10v12h9v-5h10v1h9v-4h10v18h9v-3h9v-11h10v-2h9v8h10v-2h9v7h9v-5h10v7h9v1h10v1h9v2h9v-13h10v13h9v1h10v-8h9v12h9v-3h10v-7h9v9h10v-3h9v3h10v-1h9v-1h9v-1h10v1h9v2h10v1h9v-3h9v2h19v-4h10v5h9v3h9v-1h10v-5h9v3h10v3h9v-4h9v3h10v-2h9v2h19v1h10v-1h9v-2h9v4h19v1h10v-6h9" style="stroke-linejoin: miter; stroke: #00009a; stroke-width: 1; fill: none;"></path>
      </g>
      <g>
       <path d="M98,133L106,140L113,147L121,153L128,160L136,166L143,171L151,177L158,182L166,187L173,192L181,196L188,201L196,205L203,209L211,213L219,217L226,221L234,224L241,227L249,231L256,234L264,237L271,240L279,242L286,245L294,247L301,250L309,252L316,254L324,256L331,258L339,260L347,262L354,264L362,266L369,267L377,269L384,271L392,272L399,273L407,275L414,276L422,277L429,279L437,280L444,281L452,282L459,283L467,284L475,285L482,286L490,287L497,287L505,288L512,289L520,290L527,290L535,291L542,292L550,292L557,293L565,293L572,294L580,294L587,295L595,295L602,296L610,296L618,297L625,297L633,298L640,298L648,298L655,299L663,299L670,299L678,300L685,300L693,300L700,301L708,301L715,301L723,301L730,302L738,302L746,302L753,302L761,302L768,303L776,303L783,303L791,303L798,303L806,303L813,304L821,304L828,304L836,304L843,304" style="fill: none; stroke: #0000ff; stroke-width: 2;"></path>
      </g>
     </svg>
     <g>
      <g transform="translate(0,307)">
       <path d="M0,0h941M0,-12V0M19,-6V0M38,-6V0M56,-6V0M75,-6V0M94,-12V0M113,-6V0M132,-6V0M151,-6V0M169,-6V0M188,-12V0M207,-6V0M226,-6V0M245,-6V0M263,-6V0M282,-12V0M301,-6V0M320,-6V0M339,-6V0M358,-6V0M376,-12V0M395,-6V0M414,-6V0M433,-6V0M452,-6V0M471,-12V0M489,-6V0M508,-6V0M527,-6V0M546,-6V0M565,-12V0M583,-6V0M602,-6V0M621,-6V0M640,-6V0M659,-12V0M678,-6V0M696,-6V0M715,-6V0M734,-6V0M753,-12V0M772,-6V0M790,-6V0M809,-6V0M828,-6V0M847,-12V0M866,-6V0M885,-6V0M903,-6V0M922,-6V0M941,-12V0" style="stroke: black; stroke-width: 1;"></path>
       <g font-family="Arial" font-size="13" space="preserve" fill="black" text-anchor="middle">
        <text dy=".8em" transform="translate(0,1)">
         0
        </text>
        <text dy=".8em" transform="translate(94,1)">
         10
        </text>
        <text dy=".8em" transform="translate(188,1)">
         20
        </text>
        <text dy=".8em" transform="translate(282,1)">
         30
        </text>
        <text dy=".8em" transform="translate(376,1)">
         40
        </text>
        <text dy=".8em" transform="translate(471,1)">
         50
        </text>
        <text dy=".8em" transform="translate(565,1)">
         60
        </text>
        <text dy=".8em" transform="translate(659,1)">
         70
        </text>
        <text dy=".8em" transform="translate(753,1)">
         80
        </text>
        <text dy=".8em" transform="translate(847,1)">
         90
        </text>
        <text dy=".8em" transform="translate(941,1)">
         100
        </text>
       </g>
      </g>
      <g>
       <path d="M0,0v307M35,307H0M18,295H0M18,284H0M18,272H0M18,260H0M35,249H0M18,237H0M18,225H0M18,214H0M18,202H0M35,191H0M18,179H0M18,167H0M18,156H0M18,144H0M35,132H0M18,121H0M18,109H0M18,97H0M18,86H0M35,74H0M18,62H0M18,51H0M18,39H0M18,27H0M35,16H0M18,4H0" style="stroke: black; stroke-width: 1;"></path>
       <g font-family="Arial" font-size="13" space="preserve" fill="black" text-anchor="end">
        <text dy=".4em" transform="translate(-2,307)">
         0
        </text>
        <text dy=".4em" transform="translate(-2,249)">
         50
        </text>
        <text dy=".4em" transform="translate(-2,191)">
         100
        </text>
        <text dy=".4em" transform="translate(-2,132)">
         150
        </text>
        <text dy=".4em" transform="translate(-2,74)">
         200
        </text>
        <text dy=".4em" transform="translate(-2,16)">
         250
        </text>
       </g>
      </g>
     </g>
    </g>
    <g transform="translate(118,2)" font-family="Arial" font-size="19" space="preserve">
     <text fill="black" text-anchor="middle" dy=".8em" transform="translate(471)">
      histo B
     </text>
    </g>
    <g transform="translate(917,25)" font-family="Arial" font-size="12" space="preserve" fill="black">
     <path d="M0,0H235V61H0Z" style="fill: white; stroke: black; stroke-width: 1;"></path>
     <text text-anchor="middle" dy=".4em" transform="translate(118,8)">
      hB
     </text>
     <text text-anchor="start" dy=".4em" transform="translate(12,23)">
      Entries
     </text>
     <text text-anchor="end" dy=".4em" transform="translate(223,23)">
      5000
     </text>
     <text text-anchor="start" dy=".4em" transform="translate(12,38)">
      Mean
     </text>
     <text text-anchor="end" dy=".4em" transform="translate(223,38)">
      19.59
     </text>
     <text text-anchor="start" dy=".4em" transform="translate(12,53)">
      Std Dev
     </text>
     <text text-anchor="end" dy=".4em" transform="translate(223,53)">
      18.61
     </text>
     <path d="M0,15h235" style="stroke: black; stroke-width: 1;"></path>
    </g>
   </g>
  </svg>
  <svg viewBox="0 0 1176 384" preserveAspectRatio="none" x="12" y="408" width="1176" height="384">
   <path d="M0,0H1176V384H0Z" style="fill: white;"></path>
   <g>
    <g transform="translate(118,38)">
     <path d="M0,0H941V307H0Z" style="fill: white; stroke: black; stroke-width: 1;"></path>
     <svg x="0" y="0" overflow="hidden" width="941" height="307" viewBox="0 0 941 307">
      <g>
       <path d="M0,82h9v18h10v-15h9v7h10v15h9v40h9v-15h10v-35h9v40h10v33h9v-28h10v20h9v25h9v-25h10v30h19v-30h9v23h9v15h10v-48h9v-2h10v35h9v-33h9v-7h10v-3h9v-30h10v-25h9v5h9v-77h10v37h9v-12h10v77h9v-70h10v55h9v48h9v17h10v40h9v-17h10v52h9v5h9v15h19v3h10v10h9v-20h9v35h10v-3h9v-7h10v12h9v5h10v-17h9v5h19v10h9v-5h10v2h9v-5h9v15h10v-5h9v-10h10v10h9v-10h9v-7h10v15h9v-13h10v25h9v-5h19v-2h9v-8h10v10h9v-2h10v-3h9v-5h9v5h10v5h9v-5h10v8h18v2h19v-12h10v10h9v-5h9v5h10v2h19v-5h9v5h9v-2h10v-8h9v10h10v-2h19v2h9v-2h28v-3h19" style="stroke-linejoin: miter; stroke: #00009a; stroke-width: 1; fill: none;"></path>
      </g>
      <g>
       <path d="M96,151L100,154L104,157L107,160L111,163L115,166L119,168L122,171L126,174L130,176L134,179L138,181L141,183L145,185L149,187L153,189L156,190L160,191L164,192L168,193L171,193L175,193L179,193L183,192L186,190L190,188L194,186L198,182L201,179L205,174L209,169L213,164L217,157L220,151L224,144L228,136L232,128L235,120L239,112L243,104L247,96L250,88L254,81L258,75L262,69L265,65L269,61L273,58L277,57L281,57L284,58L288,61L292,64L296,69L299,75L303,82L307,90L311,99L314,108L318,118L322,128L326,139L329,149L333,160L337,170L341,180L345,190L348,199L352,208L356,216L360,223L363,230L367,237L371,242L375,247L378,252L382,256L386,260L390,263L393,266L397,268L401,271L405,273L409,274L412,276L416,277L420,278L424,279L427,280L431,281L435,282L439,282L442,283L446,284L450,284L454,285L457,285L461,286L465,286L469,287" style="fill: none; stroke: #ff0000; stroke-width: 2;"></path>
      </g>
     </svg>
     <g>
      <g transform="translate(0,307)">
       <path d="M0,0h941M0,-12V0M19,-6V0M38,-6V0M56,-6V0M75,-6V0M94,-12V0M113,-6V0M132,-6V0M151,-6V0M169,-6V0M188,-12V0M207,-6V0M226,-6V0M245,-6V0M263,-6V0M282,-12V0M301,-6V0M320,-6V0M339,-6V0M358,-6V0M376,-12V0M395,-6V0M414,-6V0M433,-6V0M452,-6V0M471,-12V0M489,-6V0M508,-6V0M527,-6V0M546,-6V0M565,-12V0M583,-6V0M602,-6V0M621,-6V0M640,-6V0M659,-12V0M678,-6V0M696,-6V0M715,-6V0M734,-6V0M753,-12V0M772,-6V0M790,-6V0M809,-6V0M828,-6V0M847,-12V0M866,-6V0M885,-6V0M903,-6V0M922,-6V0M941,-12V0" style="stroke: black; stroke-width: 1;"></path>
       <g font-family="Arial" font-size="13" space="preserve" fill="black" text-anchor="middle">
        <text dy=".8em" transform="translate(0,1)">
         0
        </text>
        <text dy=".8em" transform="translate(94,1)">
         10
        </text>
        <text dy=".8em" transform="translate(188,1)">
         20
        </text>
        <text dy=".8em" transform="translate(282,1)">
         30
        </text>
        <text dy=".8em" transform="translate(376,1)">
         40
        </text>
        <text dy=".8em" transform="translate(471,1)">
         50
        </text>
        <text dy=".8em" transform="translate(565,1)">
         60
        </text>
        <text dy=".8em" transform="translate(659,1)">
         70
        </text>
        <text dy=".8em" transform="translate(753,1)">
         80
        </text>
        <text dy=".8em" transform="translate(847,1)">
         90
        </text>
        <text dy=".8em" transform="translate(941,1)">
         100
        </text>
       </g>
      </g>
      <g>
       <path d="M0,0v307M35,307H0M18,295H0M18,282H0M18,270H0M35,257H0M18,245H0M18,232H0M18,220H0M35,207H0M18,195H0M18,182H0M18,170H0M35,157H0M18,145H0M18,132H0M18,120H0M35,107H0M18,95H0M18,82H0M18,70H0M35,57H0M18,45H0M18,32H0M18,20H0M35,7H0" style="stroke: black; stroke-width: 1;"></path>
       <g font-family="Arial" font-size="13" space="preserve" fill="black" text-anchor="end">
        <text dy=".4em" transform="translate(-2,307)">
         0
        </text>
        <text dy=".4em" transform="translate(-2,257)">
         20
        </text>
        <text dy=".4em" transform="translate(-2,207)">
         40
        </text>
        <text dy=".4em" transform="translate(-2,157)">
         60
        </text>
        <text dy=".4em" transform="translate(-2,107)">
         80
        </text>
        <text dy=".4em" transform="translate(-2,57)">
         100
        </text>
        <text dy=".4em" transform="translate(-2,7)">
         120
        </text>
       </g>
      </g>
     </g>
    </g>
    <g transform="translate(118,2)" font-family="Arial" font-size="19" space="preserve">
     <text fill="black" text-anchor="middle" dy=".8em" transform="translate(471)">
      histo S+B
     </text>
    </g>
    <g transform="translate(917,25)" font-family="Arial" font-size="12" space="preserve" fill="black">
     <path d="M0,0H235V61H0Z" style="fill: white; stroke: black; stroke-width: 1;"></path>
     <text text-anchor="middle" dy=".4em" transform="translate(118,8)">
      hSB
     </text>
     <text text-anchor="start" dy=".4em" transform="translate(12,23)">
      Entries
     </text>
     <text text-anchor="end" dy=".4em" transform="translate(223,23)">
      3000
     </text>
     <text text-anchor="start" dy=".4em" transform="translate(12,38)">
      Mean
     </text>
     <text text-anchor="end" dy=".4em" transform="translate(223,38)">
      23.10
     </text>
     <text text-anchor="start" dy=".4em" transform="translate(12,53)">
      Std Dev
     </text>
     <text text-anchor="end" dy=".4em" transform="translate(223,53)">
      16.22
     </text>
     <path d="M0,15h235" style="stroke: black; stroke-width: 1;"></path>
    </g>
   </g>
  </svg>
 </g>
</svg>
